svgs/dw_learn_german.svg

<svg width="192" height="192" viewBox="0 0 192 192" fill="none" xmlns="http://www.w3.org/2000/svg">
<path d="M55.9204 113.451V74.5498H64.0684C68.2705 74.5498 72.3005 76.3429 75.2719 79.5347C78.2432 82.7264 79.9125 87.0554 79.9125 91.5692V96.4317C79.9125 100.946 78.2432 105.275 75.2719 108.466C72.3005 111.658 68.2705 113.451 64.0684 113.451H55.9204Z" stroke="black" stroke-width="12" stroke-linecap="round" stroke-linejoin="round"/>
<path d="M146.216 74.5508L137.163 113.451L128.11 74.5508L119.056 113.451L110.003 74.5508" stroke="black" stroke-width="12" stroke-linecap="round" stroke-linejoin="round"/>
<path d="M63.8923 139C87.0287 139 105.785 118.853 105.785 94C105.785 69.1472 87.0287 49 63.8923 49C40.7558 49 22 69.1472 22 94C22 118.853 40.7558 139 63.8923 139Z" stroke="black" stroke-width="12" stroke-linecap="round" stroke-linejoin="round"/>
<path d="M95.9973 65.1001C101.52 58.0192 108.938 52.9357 117.243 50.5398C125.549 48.144 134.339 48.5519 142.422 51.7081C150.504 54.8643 157.486 60.616 162.42 68.182C167.354 75.7481 170 84.762 170 93.9996C170 103.237 167.354 112.251 162.42 119.817C157.486 127.383 150.504 133.135 142.422 136.291C134.339 139.447 125.549 139.855 117.243 137.459C108.938 135.064 101.52 129.98 95.9973 122.899" stroke="black" stroke-width="12" stroke-linecap="round" stroke-linejoin="round"/>
</svg>

<svg width="192" height="192" viewBox="0 0 192 192" fill="none" xmlns="http://www.w3.org/2000/svg"><path d="M55.92 113.451V74.55h8.148c4.203 0 8.233 1.793 11.204 4.985 2.971 3.191 4.64 7.52 4.64 12.034v4.863c0 4.514-1.669 8.843-4.64 12.034-2.972 3.192-7.002 4.985-11.204 4.985H55.92ZM146.216 74.55l-9.053 38.901-9.053-38.9-9.054 38.9-9.053-38.9" stroke="#000" stroke-width="12" stroke-linecap="round" stroke-linejoin="round"/><path d="M63.892 139c23.137 0 41.893-20.147 41.893-45S87.029 49 63.892 49C40.756 49 22 69.147 22 94s18.756 45 41.892 45Z" stroke="#000" stroke-width="12" stroke-linecap="round" stroke-linejoin="round"/><path d="M95.997 65.1c5.523-7.08 12.941-12.164 21.246-14.56 8.306-2.396 17.096-1.988 25.179 1.168 8.082 3.156 15.064 8.908 19.998 16.474C167.354 75.748 170 84.762 170 94c0 9.237-2.646 18.251-7.58 25.817-4.934 7.566-11.916 13.318-19.998 16.474-8.083 3.156-16.873 3.564-25.179 1.168-8.305-2.395-15.723-7.479-21.246-14.56" stroke="#000" stroke-width="12" stroke-linecap="round" stroke-linejoin="round"/></svg>
